shader_type canvas_item;

void vertex() {
	// Called for every vertex the material is visible on.
}

vec2 gmc(vec2 cuv, vec2 csuv) {
	vec2 inverted_uvy = (1.0 - cuv.y);
	
}

void fragment() {
	
}

//void light() {
//	// Called for every pixel for every light affecting the CanvasItem.
//	// Uncomment to replace the default light processing function with this one.
//}
